!!!OTL: 4Ʒ2b. Kaeuzlein.
!!!ARE: Europa, Mitteleuropa, Deutschland
!!!SCT: E0432
!!!TXL: @@DE
!!!YEM: Copyright 1995, estate of Helmut Schaffrath.
**kern	**text
*ICvox	*
*M6/4	*
*k[b-]	*
*F:	*
!LO:TX:a:t=Mel. frei nach Ott, 1544 und Forſter, 1549.	!
{4f	Jch
=1	=1
2f	ar-
4f	-mes
2a	Käuʒ-
4a	-lein
=2	=2
2.f	klei-
2g}	-ne,
{8aL	wo
8b-J	.
=3	=3
2cc	ſoll
4b-	ich
2a	flie-
4g	-gen
=4	=4
[2.f	aus
4f]	.
4r}	.
{4f	bei_der
=5	=5
2f	Nacht
4a	ſo
2g	gar
4g	al-
=6	=6
(4.c	-lei-
8d	.
4e)	.
2f}	-ne?
{4f	bringt
=7	=7
(4a	mit
4cc)	.
4b-	gar
2a	man-
4g	-chen
=8	=8
[2.f	Graus.
4f]	.
4r}	.
==	==
!!!AGN: Liebes - Lied
!!!ONB: ESAC (Essen Associative Code) Database: ERK1
!!!AMT: compound duple
!!!AIN: vox
!!!EED: Helmut Schaffrath
!!!EEV: 1.0
!!!GTL: Liebeslieder [Alte (aus dem 13. bis 17. Jahrh.) mit ihrem jungen Nachwuchs]
!!!URL-scan: https://rosdok.uni-rostock.de/mcrviewer/recordIdentifier/rosdok_ppn745177662/iview2/phys_0257.iview2?x=-778.7160746633431&y=1245.5219936601352&scale=0.3980252647138593&rotation=0&layout=singlePageLayout
!!!ENC: Anna Maria Matuszewska
!!!EEV: 2024/09/12
*-	*-
